logos/rtxi.svg

<?xml version="1.0" encoding="UTF-8"?>
<!DOCTYPE svg PUBLIC "-//W3C//DTD SVG 1.1//EN" "http://www.w3.org/Graphics/SVG/1.1/DTD/svg11.dtd">
<svg xmlns="http://www.w3.org/2000/svg" version="1.1" width="200px" height="200px" style="shape-rendering:geometricPrecision; text-rendering:geometricPrecision; image-rendering:optimizeQuality; fill-rule:evenodd; clip-rule:evenodd" xmlns:xlink="http://www.w3.org/1999/xlink">
<g><path style="opacity:0.835" fill="#b74137" d="M 168.5,32.5 C 170.355,32.272 171.188,32.9387 171,34.5C 159.833,51 148.667,67.5 137.5,84C 142.852,92.8723 147.519,102.039 151.5,111.5C 146.103,111.785 140.77,111.451 135.5,110.5C 132.918,105.667 130.085,101 127,96.5C 124.455,101.761 121.288,106.594 117.5,111C 114.947,111.851 112.614,111.518 110.5,110C 114.833,103 119.167,96 123.5,89C 118.481,80.7946 114.148,72.2946 110.5,63.5C 115.875,63.1718 121.208,63.5052 126.5,64.5C 129,68.8333 131.5,73.1667 134,77.5C 141.08,64.338 148.413,51.338 156,38.5C 160.174,36.3933 164.341,34.3933 168.5,32.5 Z"/></g>
<g><path style="opacity:0.865" fill="#b74237" d="M 35.5,95.5 C 36.8333,94.1667 36.8333,92.8333 35.5,91.5C 35.1822,82.2494 35.5155,73.0828 36.5,64C 44.8333,63.3333 53.1667,63.3333 61.5,64C 65.0618,64.7389 68.2284,66.2389 71,68.5C 71.4935,66.8659 71.6602,65.1992 71.5,63.5C 84.1667,63.5 96.8333,63.5 109.5,63.5C 109.5,65.5 109.5,67.5 109.5,69.5C 105.833,69.5 102.167,69.5 98.5,69.5C 98.6666,83.1707 98.4999,96.8374 98,110.5C 93,111.833 88,111.833 83,110.5C 82.5001,96.8374 82.3334,83.1707 82.5,69.5C 79.1016,69.1796 75.7683,69.513 72.5,70.5C 75.7474,77.9256 73.7474,83.4256 66.5,87C 68.5701,87.9476 70.0701,89.4476 71,91.5C 72.0411,97.8059 73.5411,103.973 75.5,110C 75.1667,110.333 74.8333,110.667 74.5,111C 69.4456,111.781 64.4456,111.614 59.5,110.5C 57.9313,104.627 57.098,98.6269 57,92.5C 55.7135,89.8554 53.5468,88.8554 50.5,89.5C 50.8132,96.7546 50.4799,103.921 49.5,111C 44.9132,111.799 40.4132,111.632 36,110.5C 35.5007,105.511 35.3341,100.511 35.5,95.5 Z M 50.5,69.5 C 55.992,68.7366 58.992,71.0699 59.5,76.5C 58.992,81.9301 55.992,84.2634 50.5,83.5C 50.5,78.8333 50.5,74.1667 50.5,69.5 Z"/></g>
<g><path style="opacity:0.872" fill="#b74137" d="M 167.5,90.5 C 167.5,91.1667 167.5,91.8333 167.5,92.5C 167.666,98.5092 167.499,104.509 167,110.5C 162.333,111.833 157.667,111.833 153,110.5C 152.5,94.8369 152.333,79.1702 152.5,63.5C 157.5,63.5 162.5,63.5 167.5,63.5C 167.5,72.5 167.5,81.5 167.5,90.5 Z"/></g>
<g><path style="opacity:0.86" fill="#f3dad0" d="M 35.5,91.5 C 36.8333,92.8333 36.8333,94.1667 35.5,95.5C 28.3783,95.9579 21.5449,97.6246 15,100.5C 14.4644,102.567 14.9644,104.401 16.5,106C 20.4339,108.464 24.4339,110.631 28.5,112.5C 27.5489,113.919 27.2155,115.585 27.5,117.5C 18.5296,115.602 11.0296,111.268 5,104.5C 4.33333,102.833 4.33333,101.167 5,99.5C 7.62595,96.7692 10.7926,94.9358 14.5,94C 21.4574,92.7553 28.4574,91.922 35.5,91.5 Z"/></g>
<g><path style="opacity:0.831" fill="#c13034" d="M 167.5,90.5 C 177.911,92.3487 188.244,94.5154 198.5,97C 196.285,98.0438 193.952,98.7105 191.5,99C 194.265,100.097 195.931,102.097 196.5,105C 195.21,107.292 193.543,109.292 191.5,111C 186.083,113.861 180.416,116.027 174.5,117.5C 174.784,115.585 174.451,113.919 173.5,112.5C 177.356,110.592 181.356,108.759 185.5,107C 188.335,105.56 188.835,103.727 187,101.5C 186.28,103.255 185.113,104.089 183.5,104C 178.846,99.1726 173.512,95.3393 167.5,92.5C 167.5,91.8333 167.5,91.1667 167.5,90.5 Z"/></g>
<g><path style="opacity:0.731" fill="#ebbfb1" d="M 28.5,112.5 C 35.4628,114.324 42.4628,115.991 49.5,117.5C 49.5,119.167 49.5,120.833 49.5,122.5C 41.9685,121.594 34.6351,119.928 27.5,117.5C 27.2155,115.585 27.5489,113.919 28.5,112.5 Z"/></g>
<g><path style="opacity:0.736" fill="#c84e45" d="M 173.5,112.5 C 174.451,113.919 174.784,115.585 174.5,117.5C 166.982,119.699 159.316,121.366 151.5,122.5C 151.5,120.833 151.5,119.167 151.5,117.5C 158.668,115.597 166.001,113.93 173.5,112.5 Z"/></g>
<g><path style="opacity:0.771" fill="#cc5f52" d="M 151.5,117.5 C 151.5,119.167 151.5,120.833 151.5,122.5C 146.193,123.33 140.859,123.997 135.5,124.5C 135.5,122.833 135.5,121.167 135.5,119.5C 140.781,118.444 146.114,117.777 151.5,117.5 Z"/></g>
<g><path style="opacity:0.871" fill="#e2a594" d="M 49.5,117.5 C 58.7596,119.1 68.0929,120.1 77.5,120.5C 78.3007,122.042 78.634,123.708 78.5,125.5C 68.7105,125.529 59.0438,124.529 49.5,122.5C 49.5,120.833 49.5,119.167 49.5,117.5 Z"/></g>
<g><path style="opacity:0.718" fill="#da8b79" d="M 77.5,120.5 C 86.4757,121.308 95.4757,121.642 104.5,121.5C 105.833,123.167 105.833,124.833 104.5,126.5C 95.7794,126.775 87.1127,126.442 78.5,125.5C 78.634,123.708 78.3007,122.042 77.5,120.5 Z"/></g>
<g><path style="opacity:0.746" fill="#d37665" d="M 135.5,119.5 C 135.5,121.167 135.5,122.833 135.5,124.5C 125.231,125.781 114.898,126.448 104.5,126.5C 105.833,124.833 105.833,123.167 104.5,121.5C 114.844,120.975 125.177,120.309 135.5,119.5 Z"/></g>
</svg>

<svg xmlns="http://www.w3.org/2000/svg" width="200" height="200" style="shape-rendering:geometricPrecision;text-rendering:geometricPrecision;image-rendering:optimizeQuality;fill-rule:evenodd;clip-rule:evenodd"><path style="opacity:.835" fill="#b74137" d="M168.5 32.5c1.855-.228 2.688.439 2.5 2L137.5 84a213.471 213.471 0 0 1 14 27.5 69.234 69.234 0 0 1-16-1 148.454 148.454 0 0 0-8.5-14 66.694 66.694 0 0 1-9.5 14.5c-2.553.851-4.886.518-7-1l13-21a183.674 183.674 0 0 1-13-25.5 64.873 64.873 0 0 1 16 1l7.5 13a1112.566 1112.566 0 0 1 22-39 344.754 344.754 0 0 1 12.5-6z"/><path style="opacity:.865" fill="#b74237" d="M35.5 95.5c1.333-1.333 1.333-2.667 0-4a193.29 193.29 0 0 1 1-27.5 156.492 156.492 0 0 1 25 0c3.562.739 6.728 2.239 9.5 4.5.493-1.634.66-3.3.5-5h38v6h-11c.167 13.67 0 27.337-.5 41-5 1.333-10 1.333-15 0-.5-13.663-.667-27.33-.5-41a25.87 25.87 0 0 0-10 1c3.247 7.426 1.247 12.926-6 16.5 2.07.948 3.57 2.448 4.5 4.5a126.347 126.347 0 0 0 4.5 18.5l-1 1a39.924 39.924 0 0 1-15-.5 74.08 74.08 0 0 1-2.5-18c-1.286-2.645-3.453-3.645-6.5-3 .313 7.255-.02 14.421-1 21.5-4.587.799-9.087.632-13.5-.5-.5-4.989-.666-9.989-.5-15zm15-26c5.492-.763 8.492 1.57 9 7-.508 5.43-3.508 7.763-9 7v-14z"/><path style="opacity:.872" fill="#b74137" d="M167.5 90.5v2c.166 6.01-.001 12.009-.5 18-4.667 1.333-9.333 1.333-14 0-.5-15.663-.667-31.33-.5-47h15v27z"/><path style="opacity:.86" fill="#f3dad0" d="M35.5 91.5c1.333 1.333 1.333 2.667 0 4a60.183 60.183 0 0 0-20.5 5c-.536 2.067-.036 3.901 1.5 5.5a106.02 106.02 0 0 0 12 6.5c-.951 1.419-1.285 3.085-1 5-8.97-1.898-16.47-6.232-22.5-13-.667-1.667-.667-3.333 0-5 2.626-2.73 5.793-4.564 9.5-5.5a180.424 180.424 0 0 1 21-2.5z"/><path style="opacity:.831" fill="#c13034" d="M167.5 90.5a511.327 511.327 0 0 1 31 6.5 22.5 22.5 0 0 1-7 2c2.765 1.097 4.431 3.097 5 6a21.53 21.53 0 0 1-5 6 75.152 75.152 0 0 1-17 6.5c.284-1.915-.049-3.581-1-5a227.398 227.398 0 0 1 12-5.5c2.835-1.44 3.335-3.273 1.5-5.5-.72 1.755-1.887 2.589-3.5 2.5-4.654-4.827-9.988-8.66-16-11.5v-2z"/><path style="opacity:.731" fill="#ebbfb1" d="M28.5 112.5a479.979 479.979 0 0 0 21 5v5a108.225 108.225 0 0 1-22-5c-.285-1.915.049-3.581 1-5z"/><path style="opacity:.736" fill="#c84e45" d="M173.5 112.5c.951 1.419 1.284 3.085 1 5a167.477 167.477 0 0 1-23 5v-5a317.458 317.458 0 0 1 22-5z"/><path style="opacity:.771" fill="#cc5f52" d="M151.5 117.5v5a261.954 261.954 0 0 1-16 2v-5a110.41 110.41 0 0 1 16-2z"/><path style="opacity:.871" fill="#e2a594" d="M49.5 117.5c9.26 1.6 18.593 2.6 28 3 .8 1.542 1.134 3.208 1 5-9.79.029-19.456-.971-29-3v-5z"/><path style="opacity:.718" fill="#da8b79" d="M77.5 120.5a256.01 256.01 0 0 0 27 1c1.333 1.667 1.333 3.333 0 5-8.72.275-17.387-.058-26-1 .134-1.792-.2-3.458-1-5z"/><path style="opacity:.746" fill="#d37665" d="M135.5 119.5v5a260.742 260.742 0 0 1-31 2c1.333-1.667 1.333-3.333 0-5a1129.648 1129.648 0 0 0 31-2z"/></svg>
